X:18971
T:Xiraldilla (CT 092)
R:Xiraldilla
C:Tradicional
S:Música Tradicional Asturiana, (C) Tello & Tito. Asturies, 2001.
S:http://pagina.de/MusTradAst <telloytito@asturies.org>
N:Xiraldilla, transcirta y comunicada por D. Fernando del Fresno, de Uviéu, quien dice la ha recogido en Morcín.
O:Morcín
A:Asturies
Z:Cancioneru de Torner 092
M:2/4
L:1/8
Q:1/4=160
W:Vengo de la Madalena
W:de rezarles oraciones
W:con el rosario en la mano;
W:fáltenme les devociones.
W:
W:Galán del alma, adios,
W:del alma galán, adios,
W:Carlos Tercero, Rey de España,
W:luna y sol.
K:C
|d2 dd|d2 ee|dd ed|cB AB|c4|B2 z2|
d2 dd|d2 ee|dd ed|cB AB|(c2 dB)|G2 z2|
B2 AB|c4|B2 z2|
d2 dd|e2 ee|d2 ed|(cB) AB|c4|B2 z2|
G3 B|dc AB|G2 z2||


